svgs/sharp-light/seat-airline.svg

<svg xmlns="http://www.w3.org/2000/svg" viewBox="0 0 448 512"><!--! Font Awesome Pro 6.6.0 by @fontawesome - https://fontawesome.com License - https://fontawesome.com/license (Commercial License) Copyright 2024 Fonticons, Inc. --><path d="M32 16L32 0 0 0 0 16 0 160l0 3.5 1.5 3.2L64 300.7l0 3.3 1.5 0 48 102.8 4.3 9.2 10.2 0 96 0 0 64-112 0-16 0 0 32 16 0 256 0 16 0 0-32-16 0-112 0 0-64 128 0 11.3 0 3.8-10.6 40-112 7.6-21.4L424 272 85.9 272 63.5 224 336 224l16 0 0-32-16 0L48.6 192 32 156.5 32 16zM240 384l-101.8 0-37.3-80 300.4 0-28.6 80L240 384z"/></svg>

<svg xmlns="http://www.w3.org/2000/svg" viewBox="0 0 448 512"><!--! Font Awesome Pro 6.4.0 by @fontawesome - https://fontawesome.com License - https://fontawesome.com/license (Commercial License) Copyright 2023 Fonticons, Inc. --><path d="M32 16V0H0V16 160v3.5l1.5 3.2L64 300.7V304h1.5l48 102.8 4.3 9.2H128h96v64H112 96v32h16H368h16V480H368 256V416H384h11.3l3.8-10.6 40-112 7.6-21.4H424 85.9L63.5 224H336h16V192H336 48.6L32 156.5V16zM240 384H138.2l-37.3-80H401.3l-28.6 80H240z"/></svg>
